assets/icons/traton/document_doc.svg

<svg xmlns="http://www.w3.org/2000/svg" width="32" height="32" viewBox="0 0 32 32" fill="none">
<path d="M16.1773 22.0503C16.9027 22.0504 17.5583 22.223 18.1444 22.567C18.7306 22.911 19.1891 23.3862 19.5189 23.9937C19.8486 24.5939 20.0136 25.2713 20.0136 26.0252C20.0136 26.779 19.8486 27.4599 19.5189 28.0674C19.1891 28.6676 18.7306 29.1393 18.1444 29.4833C17.5583 29.8273 16.9027 30 16.1773 30C15.4445 30 14.7847 29.8274 14.1984 29.4833C13.6197 29.1394 13.162 28.6674 12.825 28.0674C12.4952 27.4598 12.3303 26.7791 12.3303 26.0252C12.3303 25.2713 12.4952 24.5939 12.825 23.9937C13.162 23.3864 13.6198 22.9109 14.1984 22.567C14.7847 22.223 15.4445 22.0503 16.1773 22.0503ZM24.5758 22.0503C25.1767 22.0503 25.7306 22.1674 26.2363 22.4016C26.749 22.6358 27.1703 22.969 27.5 23.4007L26.3901 24.4331C25.9138 23.8329 25.3381 23.5328 24.6639 23.5328C24.2463 23.5328 23.8685 23.6386 23.5315 23.8508C23.2019 24.0631 22.9422 24.3599 22.7517 24.7403C22.5685 25.1136 22.4764 25.5421 22.4764 26.0252C22.4764 26.5083 22.5685 26.9401 22.7517 27.3208C22.9422 27.694 23.2018 27.9872 23.5315 28.1995C23.8612 28.4118 24.2355 28.5175 24.6532 28.5175C25.3346 28.5175 25.9138 28.214 26.3901 27.6065L27.5 28.6379C27.1703 29.077 26.7527 29.4145 26.247 29.6487C25.7488 29.8829 25.1991 30 24.5983 30C23.8655 30 23.2057 29.8318 22.6194 29.4951C22.0405 29.1511 21.5865 28.6784 21.2568 28.0781C20.927 27.4706 20.762 26.7864 20.762 26.0252C20.762 25.2639 20.927 24.5831 21.2568 23.9829C21.5865 23.3756 22.0407 22.9037 22.6194 22.567C23.2056 22.223 23.8578 22.0504 24.5758 22.0503ZM7.68775 22.1824C8.45718 22.1824 9.13525 22.3438 9.72148 22.6658C10.3149 22.9806 10.7726 23.4273 11.0949 24.0055C11.4246 24.5836 11.5896 25.2567 11.5897 26.0252C11.5897 26.7937 11.4247 27.4676 11.0949 28.0459C10.7725 28.6239 10.3149 29.0743 9.72148 29.3962C9.13525 29.711 8.45718 29.8679 7.68775 29.8679H4.5V22.1824H7.68775ZM16.1773 23.5328C15.7744 23.5328 15.4078 23.6387 15.0782 23.8508C14.7558 24.063 14.5031 24.3599 14.3199 24.7403C14.1367 25.1136 14.0446 25.5421 14.0446 26.0252C14.0446 26.5083 14.1367 26.9401 14.3199 27.3208C14.5031 27.694 14.7558 27.9872 15.0782 28.1995C15.4078 28.4116 15.7744 28.5175 16.1773 28.5175C16.5803 28.5175 16.9433 28.4117 17.2657 28.1995C17.5881 27.9872 17.8408 27.694 18.0239 27.3208C18.2071 26.9402 18.2982 26.5082 18.2982 26.0252C18.2982 25.5421 18.2071 25.1136 18.0239 24.7403C17.8408 24.3598 17.588 24.0631 17.2657 23.8508C16.9433 23.6386 16.5803 23.5329 16.1773 23.5328ZM6.18204 28.4412H7.62211C8.30321 28.4411 8.84885 28.2249 9.25909 27.7934C9.66945 27.3542 9.87529 26.7645 9.87529 26.0252C9.87527 25.2859 9.66944 24.7005 9.25909 24.2687C8.84881 23.8297 8.30338 23.6102 7.62211 23.6101H6.18204V28.4412ZM26.0315 11.6054V20.0433H24.0252V13.0223H14.9968V4.00405H7.97478V20.0365H5.96848V2H16.4154L26.0315 11.6054ZM17.0032 11.0182H22.6067L17.0032 5.42098V11.0182Z" fill="#001D21" />
</svg>

<svg xmlns="http://www.w3.org/2000/svg" fill="none" viewBox="0 0 32 32"><path fill="#001d21" d="M16.2 22q1 0 2 .6.8.5 1.3 1.4.5 1 .5 2 0 1.2-.5 2-.5 1-1.4 1.5t-2 .5q-1 0-1.9-.5T12.8 28q-.5-1-.5-2 0-1.2.5-2.1a4 4 0 0 1 3.4-2m8.4 0q.9 0 1.6.4t1.3 1l-1.1 1a2 2 0 0 0-2.9-.5q-.5.3-.7.8-.3.6-.3 1.3t.3 1.3.7.9 1.2.3q1 0 1.7-.9l1.1 1q-.4.7-1.3 1-.7.4-1.6.4t-2-.5q-.9-.5-1.3-1.4-.5-1-.5-2 0-1.2.5-2.1t1.3-1.4q1-.6 2-.5m-17 .2q1.3 0 2.1.5t1.4 1.3q.5 1 .5 2a4 4 0 0 1-.5 2q-.5.9-1.4 1.4t-2 .5H4.5v-7.7zm8.6 1.3a2 2 0 0 0-1.9 1.2q-.3.6-.3 1.3t.3 1.3.8.9 1 .3l1.2-.3q.4-.3.7-.9t.3-1.3-.3-1.3l-.7-.8zm-10 5h1.4q1 0 1.7-.7t.6-1.8q0-1-.6-1.7t-1.7-.7H6.2zM26 11.5V20h-2v-7h-9V4H8v16H6V2h10.4zm-9-.6h5.6L17 5.4z"/></svg>
